melody-of-light/img/category/category-4.svg

<svg width="20" height="20" viewBox="0 0 20 20" fill="none" xmlns="http://www.w3.org/2000/svg">
<path d="M15.9858 10.6174L14.1241 2.40778C14.0441 2.05478 13.6564 1.74512 13.2944 1.74512H6.70678C6.34481 1.74512 5.95706 2.05478 5.87701 2.40778L4.01531 10.6174C3.98308 10.7596 4.00563 10.8884 4.07874 10.9799C4.1519 11.0716 4.27247 11.122 4.41828 11.122H6.27022V12.5196C6.03611 12.6466 5.87712 12.8946 5.87712 13.1796C5.87712 13.5941 6.21312 13.9301 6.62759 13.9301C7.04206 13.9301 7.37806 13.5941 7.37806 13.1796C7.37806 12.8945 7.21907 12.6466 6.98496 12.5196V11.122H15.5827C15.7285 11.122 15.8491 11.0715 15.9223 10.9799C15.9955 10.8883 16.018 10.7596 15.9858 10.6174Z" fill="#93939F"/>
<path d="M13.1358 17.5401H10.3574V11.8369H9.64262V17.5401H6.8642C6.66683 17.5401 6.50684 17.7001 6.50684 17.8974C6.50684 18.0948 6.66683 18.2548 6.8642 18.2548H13.1358C13.3331 18.2548 13.4931 18.0948 13.4931 17.8974C13.4931 17.7001 13.3331 17.5401 13.1358 17.5401Z" fill="#93939F"/>
</svg>

<svg width="20" height="20" fill="none" xmlns="http://www.w3.org/2000/svg"><path d="M15.986 10.617l-1.862-8.21c-.08-.352-.468-.662-.83-.662H6.707c-.362 0-.75.31-.83.663l-1.862 8.21c-.032.142-.01.27.064.362.073.092.193.142.34.142H6.27v1.398a.75.75 0 10.715 0v-1.398h8.598c.146 0 .266-.05.34-.142a.426.426 0 00.063-.363z" fill="#93939F"/><path d="M13.136 17.54h-2.779v-5.703h-.714v5.703H6.864a.357.357 0 100 .715h6.272a.357.357 0 000-.715z" fill="#93939F"/></svg>
